src/components/content/Icon/functional/money.svg

<svg xmlns="http://www.w3.org/2000/svg" width="100" height="100" fill="none" viewBox="0 0 100 100"><path stroke="#0b301a" stroke-linecap="round" stroke-linejoin="round" stroke-width="2" d="M30.98 52.34v13.1c0 3.72 3.02 6.72 6.72 6.72H67a4.78 4.78 0 0 0 4.78-4.78v-4.32m-28.8-33.5H38.2c-3.98 0-7.22 3.24-7.22 7.22v9.26m40.8 4.82v-10.3c0-2.2-1.8-4-4-4h-30.6l24.84-8.72 3.76 8.04M37 56.34l-6-5.9m-6.04 5.9L31 50.46m44.04.42h-12.5c-3.2 0-5.8 2.6-5.8 5.8v.18c0 3.14 2.56 5.7 5.7 5.7h12.6z"/></svg>

<svg width="100" height="100" viewBox="0 0 100 100" fill="none" xmlns="http://www.w3.org/2000/svg">
<path d="M30.98 52.34V65.44C30.98 69.16 34 72.16 37.7 72.16H67C69.64 72.16 71.78 70.02 71.78 67.38V63.06M42.98 29.56H38.2C34.22 29.56 30.98 32.8 30.98 36.78V46.04M71.78 50.86V40.56C71.78 38.36 69.98 36.56 67.78 36.56H37.18L62.02 27.84L65.78 35.88M37 56.34L31 50.44M24.96 56.34L31 50.46M75.04 50.88H62.54C59.34 50.88 56.74 53.48 56.74 56.68V56.86C56.74 60 59.3 62.56 62.44 62.56H75.04V50.88Z" stroke="#0B301A" stroke-width="2" stroke-linecap="round" stroke-linejoin="round"/>
</svg>
